src/assets-svg/sign_up.svg

<svg width="123" height="124" viewBox="0 0 123 124" fill="none" xmlns="http://www.w3.org/2000/svg">
<g clip-path="url(#clip0_825_12318)">
<path d="M11.8284 103.927L10.7451 99.655C8.82443 98.841 6.85935 98.136 4.85925 97.5433L4.72251 99.5289L4.16799 97.3413C1.68751 96.6323 0 96.3203 0 96.3203C0 96.3203 2.27885 104.988 7.06015 111.615L12.6308 112.593L8.30312 113.217C8.90456 113.941 9.5509 114.626 10.2383 115.268C17.193 121.724 24.9393 124.686 27.54 121.884C30.1407 119.082 26.6111 111.577 19.6564 105.123C17.5004 103.121 14.7921 101.515 12.0809 100.251L11.8284 103.927Z" fill="#F2F2F2"/>
<path d="M22.1304 99.2865L23.4115 95.0693C22.1882 93.3796 20.8705 91.7604 19.4648 90.2191L18.3214 91.8482L18.9773 89.6889C17.2201 87.8004 15.9369 86.6611 15.9369 86.6611C15.9369 86.6611 13.4078 95.2592 14.075 103.403L18.3379 107.12L14.31 105.417C14.4509 106.348 14.6502 107.269 14.9068 108.174C17.5235 117.295 22.6236 123.835 26.2982 122.78C29.9728 121.726 30.8305 113.478 28.2138 104.357C27.4026 101.529 25.9141 98.7543 24.2468 96.2708L22.1304 99.2865Z" fill="#F2F2F2"/>
<path d="M85.8288 29.226H85.1531V10.7144C85.1531 9.30738 84.8759 7.91412 84.3375 6.61419C83.799 5.31425 83.0098 4.1331 82.0149 3.13818C81.02 2.14325 79.8388 1.35404 78.5389 0.815585C77.2389 0.277136 75.8457 0 74.4386 0H35.2181C32.3764 0 29.6512 1.12884 27.6418 3.13818C25.6325 5.14752 24.5037 7.87277 24.5037 10.7144V112.272C24.5037 113.679 24.7808 115.072 25.3192 116.372C25.8577 117.672 26.6469 118.853 27.6418 119.848C28.6368 120.843 29.8179 121.632 31.1178 122.171C32.4178 122.709 33.811 122.986 35.2181 122.986H74.4386C77.2803 122.986 80.0055 121.858 82.0148 119.848C84.0241 117.839 85.1529 115.114 85.1529 112.272V42.4029H85.8286L85.8288 29.226Z" fill="#E6E6E6"/>
<path d="M74.871 2.78711H69.7518C69.9873 3.36435 70.0771 3.99064 70.0135 4.6108C69.9499 5.23095 69.7347 5.82594 69.3869 6.34334C69.0392 6.86074 68.5695 7.28468 68.0193 7.57779C67.4691 7.87091 66.8552 8.0242 66.2318 8.02418H43.7628C43.1394 8.02415 42.5256 7.87081 41.9755 7.57768C41.4253 7.28454 40.9557 6.8606 40.6079 6.34321C40.2602 5.82581 40.0451 5.23084 39.9814 4.61071C39.9178 3.99058 40.0077 3.36433 40.2431 2.78711H35.4615C33.3394 2.78711 31.3042 3.63011 29.8036 5.13067C28.3031 6.63123 27.4601 8.66642 27.4601 10.7885V112.199C27.4601 114.321 28.3031 116.356 29.8036 117.857C31.3042 119.357 33.3394 120.2 35.4615 120.2H74.871C76.9931 120.2 79.0283 119.357 80.5289 117.857C82.0294 116.356 82.8724 114.321 82.8724 112.199V10.7884C82.8724 8.66628 82.0293 6.63113 80.5288 5.13061C79.0282 3.63009 76.9931 2.78711 74.871 2.78711Z" fill="white"/>
<path d="M50.1444 43.1823C50.1443 42.4735 50.3309 41.7771 50.6854 41.1633C51.04 40.5495 51.5499 40.0399 52.164 39.6858C51.5502 39.3313 50.854 39.1446 50.1452 39.1445C49.4364 39.1445 48.7401 39.331 48.1262 39.6853C47.5124 40.0397 47.0026 40.5494 46.6482 41.1632C46.2938 41.777 46.1072 42.4733 46.1072 43.1821C46.1072 43.8909 46.2938 44.5872 46.6482 45.201C47.0026 45.8148 47.5124 46.3245 48.1262 46.6788C48.7401 47.0332 49.4364 47.2197 50.1452 47.2196C50.854 47.2195 51.5502 47.0329 52.164 46.6784C51.55 46.3244 51.04 45.8149 50.6855 45.2011C50.3309 44.5874 50.1443 43.8911 50.1444 43.1823Z" fill="#CCCCCC"/>
<path d="M55.2201 43.1823C55.22 42.4735 55.4065 41.7771 55.7611 41.1633C56.1156 40.5494 56.6256 40.0398 57.2397 39.6858C56.6259 39.3313 55.9296 39.1446 55.2209 39.1445C54.5121 39.1445 53.8158 39.331 53.2019 39.6853C52.588 40.0397 52.0783 40.5494 51.7239 41.1632C51.3694 41.777 51.1829 42.4733 51.1829 43.1821C51.1829 43.8909 51.3694 44.5872 51.7239 45.201C52.0783 45.8148 52.588 46.3245 53.2019 46.6788C53.8158 47.0332 54.5121 47.2197 55.2209 47.2196C55.9296 47.2195 56.6259 47.0329 57.2397 46.6784C56.6256 46.3244 56.1157 45.8149 55.7612 45.2011C55.4066 44.5874 55.22 43.8911 55.2201 43.1823Z" fill="#CCCCCC"/>
<path d="M60.1806 47.2206C62.4105 47.2206 64.2181 45.4129 64.2181 43.183C64.2181 40.9532 62.4105 39.1455 60.1806 39.1455C57.9507 39.1455 56.1431 40.9532 56.1431 43.183C56.1431 45.4129 57.9507 47.2206 60.1806 47.2206Z" fill="#1A33B2"/>
<path d="M60.1806 47.2206C62.4105 47.2206 64.2181 45.4129 64.2181 43.183C64.2181 40.9532 62.4105 39.1455 60.1806 39.1455C57.9507 39.1455 56.1431 40.9532 56.1431 43.183C56.1431 45.4129 57.9507 47.2206 60.1806 47.2206Z" fill="black" fill-opacity="0.2"/>
<path d="M66.9283 55.7939H43.3966C43.1726 55.7936 42.9578 55.7045 42.7994 55.5461C42.641 55.3877 42.5519 55.1729 42.5516 54.9489V31.4173C42.5519 31.1932 42.641 30.9785 42.7994 30.82C42.9578 30.6616 43.1726 30.5725 43.3966 30.5723H66.9283C67.1523 30.5725 67.3671 30.6616 67.5255 30.82C67.6839 30.9785 67.773 31.1932 67.7733 31.4173V54.9489C67.773 55.1729 67.6839 55.3877 67.5255 55.5461C67.3671 55.7045 67.1523 55.7936 66.9283 55.7939ZM43.3966 30.9105C43.2622 30.9106 43.1333 30.964 43.0383 31.0591C42.9432 31.1541 42.8898 31.283 42.8897 31.4174V54.9491C42.8898 55.0835 42.9432 55.2124 43.0383 55.3074C43.1333 55.4024 43.2622 55.4559 43.3966 55.456H66.9283C67.0627 55.4559 67.1916 55.4024 67.2866 55.3074C67.3817 55.2124 67.4351 55.0835 67.4352 54.9491V31.4174C67.4351 31.283 67.3817 31.1541 67.2866 31.0591C67.1916 30.964 67.0627 30.9106 66.9283 30.9105H43.3966Z" fill="#CCCCCC"/>
<path d="M72.1826 73.832H36.0922V74.1701H72.1826V73.832Z" fill="#CCCCCC"/>
<path d="M37.2319 71.7219C37.8614 71.7219 38.3717 71.2116 38.3717 70.5821C38.3717 69.9527 37.8614 69.4424 37.2319 69.4424C36.6024 69.4424 36.0922 69.9527 36.0922 70.5821C36.0922 71.2116 36.6024 71.7219 37.2319 71.7219Z" fill="#1A33B2"/>
<path d="M37.2319 71.7219C37.8614 71.7219 38.3717 71.2116 38.3717 70.5821C38.3717 69.9527 37.8614 69.4424 37.2319 69.4424C36.6024 69.4424 36.0922 69.9527 36.0922 70.5821C36.0922 71.2116 36.6024 71.7219 37.2319 71.7219Z" fill="black" fill-opacity="0.2"/>
<path d="M72.1826 85.2285H36.0922V85.5665H72.1826V85.2285Z" fill="#CCCCCC"/>
<path d="M37.2319 83.1184C37.8614 83.1184 38.3717 82.6081 38.3717 81.9786C38.3717 81.3492 37.8614 80.8389 37.2319 80.8389C36.6024 80.8389 36.0922 81.3492 36.0922 81.9786C36.0922 82.6081 36.6024 83.1184 37.2319 83.1184Z" fill="#1A33B2"/>
<path d="M37.2319 83.1184C37.8614 83.1184 38.3717 82.6081 38.3717 81.9786C38.3717 81.3492 37.8614 80.8389 37.2319 80.8389C36.6024 80.8389 36.0922 81.3492 36.0922 81.9786C36.0922 82.6081 36.6024 83.1184 37.2319 83.1184Z" fill="black" fill-opacity="0.2"/>
<path d="M71.522 98.2064H60.1164C59.9194 98.2062 59.7305 98.1279 59.5912 97.9886C59.4519 97.8492 59.3735 97.6604 59.3733 97.4633V93.4658C59.3735 93.2687 59.4519 93.0799 59.5912 92.9405C59.7305 92.8012 59.9194 92.7229 60.1164 92.7227H71.522C71.719 92.7229 71.9079 92.8012 72.0472 92.9405C72.1865 93.0799 72.2648 93.2687 72.2651 93.4658V97.4633C72.2648 97.6604 72.1865 97.8492 72.0472 97.9886C71.9079 98.1279 71.719 98.2062 71.522 98.2064Z" fill="#1A33B2"/>
<path d="M71.522 98.2064H60.1164C59.9194 98.2062 59.7305 98.1279 59.5912 97.9886C59.4519 97.8492 59.3735 97.6604 59.3733 97.4633V93.4658C59.3735 93.2687 59.4519 93.0799 59.5912 92.9405C59.7305 92.8012 59.9194 92.7229 60.1164 92.7227H71.522C71.719 92.7229 71.9079 92.8012 72.0472 92.9405C72.1865 93.0799 72.2648 93.2687 72.2651 93.4658V97.4633C72.2648 97.6604 72.1865 97.8492 72.0472 97.9886C71.9079 98.1279 71.719 98.2062 71.522 98.2064Z" fill="black" fill-opacity="0.2"/>
<path d="M40.9497 71.7219C41.5792 71.7219 42.0895 71.2116 42.0895 70.5821C42.0895 69.9527 41.5792 69.4424 40.9497 69.4424C40.3202 69.4424 39.8099 69.9527 39.8099 70.5821C39.8099 71.2116 40.3202 71.7219 40.9497 71.7219Z" fill="#1A33B2"/>
<path d="M40.9497 71.7219C41.5792 71.7219 42.0895 71.2116 42.0895 70.5821C42.0895 69.9527 41.5792 69.4424 40.9497 69.4424C40.3202 69.4424 39.8099 69.9527 39.8099 70.5821C39.8099 71.2116 40.3202 71.7219 40.9497 71.7219Z" fill="black" fill-opacity="0.2"/>
<path d="M44.6675 71.7219C45.2969 71.7219 45.8072 71.2116 45.8072 70.5821C45.8072 69.9527 45.2969 69.4424 44.6675 69.4424C44.038 69.4424 43.5277 69.9527 43.5277 70.5821C43.5277 71.2116 44.038 71.7219 44.6675 71.7219Z" fill="#1A33B2"/>
<path d="M44.6675 71.7219C45.2969 71.7219 45.8072 71.2116 45.8072 70.5821C45.8072 69.9527 45.2969 69.4424 44.6675 69.4424C44.038 69.4424 43.5277 69.9527 43.5277 70.5821C43.5277 71.2116 44.038 71.7219 44.6675 71.7219Z" fill="black" fill-opacity="0.2"/>
<path d="M40.9497 83.1184C41.5792 83.1184 42.0895 82.6081 42.0895 81.9786C42.0895 81.3492 41.5792 80.8389 40.9497 80.8389C40.3202 80.8389 39.8099 81.3492 39.8099 81.9786C39.8099 82.6081 40.3202 83.1184 40.9497 83.1184Z" fill="#1A33B2"/>
<path d="M40.9497 83.1184C41.5792 83.1184 42.0895 82.6081 42.0895 81.9786C42.0895 81.3492 41.5792 80.8389 40.9497 80.8389C40.3202 80.8389 39.8099 81.3492 39.8099 81.9786C39.8099 82.6081 40.3202 83.1184 40.9497 83.1184Z" fill="black" fill-opacity="0.2"/>
<path d="M44.6675 83.1184C45.2969 83.1184 45.8072 82.6081 45.8072 81.9786C45.8072 81.3492 45.2969 80.8389 44.6675 80.8389C44.038 80.8389 43.5277 81.3492 43.5277 81.9786C43.5277 82.6081 44.038 83.1184 44.6675 83.1184Z" fill="#1A33B2"/>
<path d="M44.6675 83.1184C45.2969 83.1184 45.8072 82.6081 45.8072 81.9786C45.8072 81.3492 45.2969 80.8389 44.6675 80.8389C44.038 80.8389 43.5277 81.3492 43.5277 81.9786C43.5277 82.6081 44.038 83.1184 44.6675 83.1184Z" fill="black" fill-opacity="0.2"/>
<path d="M122.541 123.368H3.9765C3.72268 123.368 3.51709 123.278 3.51709 123.167C3.51709 123.056 3.72268 122.966 3.9765 122.966H122.541C122.794 122.966 123 123.056 123 123.167C123 123.278 122.794 123.368 122.541 123.368Z" fill="#3F3D56"/>
<path d="M93.2475 80.8266C93.3285 80.8636 93.4064 80.9071 93.4805 80.9566L100.887 77.7954L101.151 75.8443L104.111 75.8262L103.936 80.301L94.1602 82.8863C94.1396 82.9543 94.1149 83.0209 94.0863 83.0859C93.945 83.3875 93.7177 83.6406 93.4329 83.8134C93.1482 83.9862 92.8188 84.0711 92.486 84.0573C92.1532 84.0435 91.8319 83.9317 91.5625 83.736C91.293 83.5402 91.0874 83.2691 90.9715 82.9569C90.8556 82.6447 90.8345 82.3051 90.9109 81.9809C90.9873 81.6568 91.1578 81.3624 91.401 81.1348C91.6442 80.9072 91.9491 80.7565 92.2777 80.7016C92.6062 80.6468 92.9436 80.6903 93.2475 80.8266Z" fill="#FFB8B8"/>
<path d="M105.187 121.377H103.163L102.2 113.568L105.188 113.569L105.187 121.377Z" fill="#FFB8B8"/>
<path d="M101.717 120.799H105.621V123.257H99.2582C99.2582 122.605 99.5172 121.98 99.9782 121.519C100.439 121.058 101.065 120.799 101.717 120.799Z" fill="#2F2E41"/>
<path d="M113.061 120.805L111.046 121.004L109.322 113.327L112.295 113.034L113.061 120.805Z" fill="#FFB8B8"/>
<path d="M109.55 120.57L113.436 120.187L113.677 122.633L107.345 123.257C107.313 122.936 107.345 122.611 107.439 122.302C107.533 121.994 107.686 121.706 107.891 121.457C108.096 121.207 108.348 121 108.632 120.848C108.917 120.696 109.229 120.601 109.55 120.57Z" fill="#2F2E41"/>
<path d="M105.751 67.5619C107.991 67.5619 109.807 65.7461 109.807 63.5061C109.807 61.2661 107.991 59.4502 105.751 59.4502C103.511 59.4502 101.695 61.2661 101.695 63.5061C101.695 65.7461 103.511 67.5619 105.751 67.5619Z" fill="#FFB8B8"/>
<path d="M102.71 119.798C102.536 119.798 102.368 119.737 102.235 119.626C102.101 119.514 102.011 119.359 101.981 119.187C100.933 113.37 97.5082 94.3503 97.4263 93.8234C97.4245 93.8113 97.4236 93.7991 97.4237 93.7868V92.3687C97.4236 92.317 97.4397 92.2666 97.4698 92.2247L97.9223 91.5909C97.9438 91.5604 97.972 91.5353 98.0048 91.5174C98.0375 91.4995 98.0739 91.4893 98.1112 91.4877C100.691 91.3667 109.14 91.0123 109.548 91.5222C109.958 92.0347 109.813 93.5875 109.78 93.8936L109.781 93.9255L113.577 118.199C113.607 118.393 113.559 118.591 113.444 118.749C113.329 118.908 113.157 119.015 112.963 119.047L110.593 119.438C110.416 119.466 110.235 119.43 110.083 119.337C109.931 119.243 109.817 119.098 109.763 118.927C109.03 116.584 106.571 108.702 105.719 105.653C105.713 105.633 105.701 105.617 105.685 105.606C105.668 105.595 105.648 105.59 105.628 105.593C105.608 105.596 105.59 105.606 105.577 105.621C105.564 105.636 105.557 105.656 105.557 105.676C105.599 108.583 105.702 116 105.738 118.562L105.742 118.838C105.743 119.025 105.675 119.205 105.55 119.344C105.424 119.483 105.252 119.57 105.066 119.587L102.78 119.795C102.757 119.797 102.733 119.798 102.71 119.798Z" fill="#2F2E41"/>
<path d="M103.177 69.1566C102.469 69.5774 102.045 70.3506 101.802 71.1374C101.352 72.5941 101.082 74.1002 100.996 75.6224L100.739 80.1801L97.5593 92.263C100.315 94.5948 101.905 94.0648 105.615 92.1575C109.324 90.2501 109.748 92.7934 109.748 92.7934L110.49 82.5124L111.55 71.278C111.312 70.9915 111.043 70.7326 110.747 70.5061C109.768 69.7443 108.628 69.2148 107.414 68.9575C106.2 68.7002 104.943 68.7218 103.739 69.0207L103.177 69.1566Z" fill="#1A33B2"/>
<path d="M103.177 69.1566C102.469 69.5774 102.045 70.3506 101.802 71.1374C101.352 72.5941 101.082 74.1002 100.996 75.6224L100.739 80.1801L97.5593 92.263C100.315 94.5948 101.905 94.0648 105.615 92.1575C109.324 90.2501 109.748 92.7934 109.748 92.7934L110.49 82.5124L111.55 71.278C111.312 70.9915 111.043 70.7326 110.747 70.5061C109.768 69.7443 108.628 69.2148 107.414 68.9575C106.2 68.7002 104.943 68.7218 103.739 69.0207L103.177 69.1566Z" fill="black" fill-opacity="0.2"/>
<path d="M102.144 83.2668C102.229 83.299 102.312 83.3379 102.392 83.3831L109.715 79.7175L109.837 77.7317L112.858 77.5234L113.02 82.0502L103.233 85.2867C103.153 85.6295 102.97 85.9398 102.71 86.1764C102.449 86.413 102.123 86.5646 101.774 86.6112C101.425 86.6577 101.07 86.597 100.757 86.437C100.443 86.277 100.186 86.0254 100.019 85.7156C99.8521 85.4058 99.7833 85.0524 99.822 84.7026C99.8607 84.3528 100.005 84.0231 100.236 83.7572C100.466 83.4914 100.772 83.3021 101.113 83.2145C101.454 83.1269 101.814 83.1452 102.144 83.2668Z" fill="#FFB8B8"/>
<path d="M111.497 71.33C113.299 71.966 113.616 78.8558 113.616 78.8558C111.496 77.6899 108.953 79.5978 108.953 79.5978C108.953 79.5978 108.423 77.7959 107.787 75.4641C107.595 74.8082 107.572 74.1144 107.72 73.4473C107.868 72.7801 108.183 72.1613 108.635 71.6485C108.635 71.6485 109.695 70.6937 111.497 71.33Z" fill="#1A33B2"/>
<path d="M111.497 71.33C113.299 71.966 113.616 78.8558 113.616 78.8558C111.496 77.6899 108.953 79.5978 108.953 79.5978C108.953 79.5978 108.423 77.7959 107.787 75.4641C107.595 74.8082 107.572 74.1144 107.72 73.4473C107.868 72.7801 108.183 72.1613 108.635 71.6485C108.635 71.6485 109.695 70.6937 111.497 71.33Z" fill="black" fill-opacity="0.2"/>
<path d="M109.388 64.5787C108.882 64.1744 108.193 64.9093 108.193 64.9093L107.789 61.2708C107.789 61.2708 105.262 61.5734 103.645 61.1698C102.028 60.7661 101.775 62.6354 101.775 62.6354C101.692 61.8803 101.675 61.1193 101.725 60.3613C101.826 59.4517 103.139 58.5421 105.464 57.9356C107.789 57.3291 109.001 59.957 109.001 59.957C110.619 60.7655 109.893 64.983 109.388 64.5787Z" fill="#2F2E41"/>
</g>
<defs>
<clipPath id="clip0_825_12318">
<rect width="123" height="123.368" fill="white"/>
</clipPath>
</defs>
</svg>

<svg width="123" height="124" fill="none" xmlns="http://www.w3.org/2000/svg"><g clip-path="url(#a)"><path d="m11.828 103.927-1.083-4.272a55.48 55.48 0 0 0-5.886-2.112l-.136 1.986-.555-2.188C1.688 96.632 0 96.321 0 96.321s2.279 8.667 7.06 15.294l5.57.978-4.327.624a22.334 22.334 0 0 0 1.935 2.051c6.955 6.456 14.701 9.418 17.302 6.616 2.6-2.802-.929-10.307-7.884-16.761-2.156-2.002-4.864-3.608-7.575-4.872l-.253 3.676Z" fill="#F2F2F2"/><path d="m22.13 99.287 1.282-4.218a55.473 55.473 0 0 0-3.947-4.85l-1.144 1.63.656-2.16c-1.757-1.889-3.04-3.028-3.04-3.028s-2.53 8.598-1.862 16.742l4.263 3.717-4.028-1.703c.14.931.34 1.852.597 2.757 2.616 9.121 7.717 15.661 11.391 14.606 3.675-1.054 4.533-9.302 1.916-18.423-.811-2.828-2.3-5.603-3.967-8.086l-2.117 3.016Z" fill="#F2F2F2"/><path d="M85.829 29.226h-.676V10.714A10.715 10.715 0 0 0 74.44 0h-39.22a10.715 10.715 0 0 0-10.715 10.714v101.558a10.715 10.715 0 0 0 10.714 10.714h39.22a10.711 10.711 0 0 0 10.715-10.714v-69.87h.676V29.227Z" fill="#E6E6E6"/><path d="M74.871 2.787h-5.12a3.801 3.801 0 0 1-3.52 5.237H43.764a3.801 3.801 0 0 1-3.52-5.237h-4.782a8.002 8.002 0 0 0-8 8.002v101.41a8.003 8.003 0 0 0 8 8.001h39.41a8.003 8.003 0 0 0 8.001-8.001V10.789a8.001 8.001 0 0 0-8.001-8.002Z" fill="#fff"/><path d="M50.144 43.182a4.036 4.036 0 0 1 2.02-3.496 4.038 4.038 0 1 0 0 6.992 4.034 4.034 0 0 1-2.02-3.496Z" fill="#CCC"/><path d="M55.22 43.182a4.035 4.035 0 0 1 2.02-3.496 4.038 4.038 0 1 0 0 6.992 4.034 4.034 0 0 1-2.02-3.496Z" fill="#CCC"/><path d="M60.18 47.22a4.038 4.038 0 1 0 0-8.074 4.038 4.038 0 0 0 0 8.075Z" fill="#1A33B2"/><path d="M60.18 47.22a4.038 4.038 0 1 0 0-8.074 4.038 4.038 0 0 0 0 8.075Z" fill="#000" fill-opacity=".2"/><path d="M66.928 55.794H43.397a.846.846 0 0 1-.845-.845V31.417a.846.846 0 0 1 .845-.845h23.531a.846.846 0 0 1 .845.845V54.95a.846.846 0 0 1-.845.845ZM43.397 30.91a.507.507 0 0 0-.507.506V54.95a.507.507 0 0 0 .507.507h23.531a.507.507 0 0 0 .507-.507V31.417a.507.507 0 0 0-.507-.507H43.397ZM72.183 73.832h-36.09v.338h36.09v-.338Z" fill="#CCC"/><path d="M37.232 71.722a1.14 1.14 0 1 0 0-2.28 1.14 1.14 0 0 0 0 2.28Z" fill="#1A33B2"/><path d="M37.232 71.722a1.14 1.14 0 1 0 0-2.28 1.14 1.14 0 0 0 0 2.28Z" fill="#000" fill-opacity=".2"/><path d="M72.183 85.228h-36.09v.339h36.09v-.338Z" fill="#CCC"/><path d="M37.232 83.118a1.14 1.14 0 1 0 0-2.28 1.14 1.14 0 0 0 0 2.28Z" fill="#1A33B2"/><path d="M37.232 83.118a1.14 1.14 0 1 0 0-2.28 1.14 1.14 0 0 0 0 2.28Z" fill="#000" fill-opacity=".2"/><path d="M71.522 98.206H60.116a.744.744 0 0 1-.743-.743v-3.997a.744.744 0 0 1 .743-.743h11.406a.744.744 0 0 1 .743.743v3.997a.745.745 0 0 1-.743.743Z" fill="#1A33B2"/><path d="M71.522 98.206H60.116a.744.744 0 0 1-.743-.743v-3.997a.744.744 0 0 1 .743-.743h11.406a.744.744 0 0 1 .743.743v3.997a.745.745 0 0 1-.743.743Z" fill="#000" fill-opacity=".2"/><path d="M40.95 71.722a1.14 1.14 0 1 0 0-2.28 1.14 1.14 0 0 0 0 2.28Z" fill="#1A33B2"/><path d="M40.95 71.722a1.14 1.14 0 1 0 0-2.28 1.14 1.14 0 0 0 0 2.28Z" fill="#000" fill-opacity=".2"/><path d="M44.667 71.722a1.14 1.14 0 1 0 0-2.28 1.14 1.14 0 0 0 0 2.28Z" fill="#1A33B2"/><path d="M44.667 71.722a1.14 1.14 0 1 0 0-2.28 1.14 1.14 0 0 0 0 2.28Z" fill="#000" fill-opacity=".2"/><path d="M40.95 83.118a1.14 1.14 0 1 0 0-2.28 1.14 1.14 0 0 0 0 2.28Z" fill="#1A33B2"/><path d="M40.95 83.118a1.14 1.14 0 1 0 0-2.28 1.14 1.14 0 0 0 0 2.28Z" fill="#000" fill-opacity=".2"/><path d="M44.667 83.118a1.14 1.14 0 1 0 0-2.28 1.14 1.14 0 0 0 0 2.28Z" fill="#1A33B2"/><path d="M44.667 83.118a1.14 1.14 0 1 0 0-2.28 1.14 1.14 0 0 0 0 2.28Z" fill="#000" fill-opacity=".2"/><path d="M122.541 123.368H3.977c-.254 0-.46-.09-.46-.201 0-.111.206-.201.46-.201H122.54c.253 0 .459.09.459.201 0 .111-.206.201-.459.201Z" fill="#3F3D56"/><path d="M93.248 80.827c.08.037.158.08.233.13l7.406-3.162.264-1.95 2.96-.019-.175 4.475-9.776 2.585c-.02.068-.045.135-.074.2a1.69 1.69 0 1 1-.838-2.26ZM105.187 121.377h-2.024l-.963-7.809 2.988.001-.001 7.808Z" fill="#FFB8B8"/><path d="M101.717 120.799h3.904v2.458h-6.363a2.458 2.458 0 0 1 2.459-2.458Z" fill="#2F2E41"/><path d="m113.061 120.805-2.015.199-1.724-7.677 2.973-.293.766 7.771Z" fill="#FFB8B8"/><path d="m109.55 120.57 3.886-.383.241 2.446-6.332.624a2.449 2.449 0 0 1 .546-1.8 2.46 2.46 0 0 1 1.659-.887Z" fill="#2F2E41"/><path d="M105.751 67.562a4.056 4.056 0 1 0 0-8.112 4.056 4.056 0 0 0 0 8.112Z" fill="#FFB8B8"/><path d="M102.71 119.798a.741.741 0 0 1-.729-.611c-1.048-5.817-4.473-24.837-4.555-25.364a.235.235 0 0 1-.002-.036v-1.418c0-.052.016-.102.046-.144l.452-.634a.244.244 0 0 1 .19-.103c2.579-.121 11.028-.476 11.436.034.41.513.265 2.066.232 2.372l.001.031 3.796 24.274a.742.742 0 0 1-.614.848l-2.37.391a.747.747 0 0 1-.83-.511c-.733-2.343-3.192-10.225-4.044-13.274a.082.082 0 0 0-.162.023c.042 2.907.145 10.324.181 12.886l.004.276a.75.75 0 0 1-.676.749l-2.286.208a.82.82 0 0 1-.07.003Z" fill="#2F2E41"/><path d="M103.177 69.157c-.708.42-1.132 1.194-1.375 1.98a18.784 18.784 0 0 0-.806 4.485l-.257 4.558-3.18 12.083c2.756 2.332 4.346 1.802 8.056-.106 3.709-1.907 4.133.636 4.133.636l.742-10.28 1.06-11.235a4.971 4.971 0 0 0-.803-.772 8.194 8.194 0 0 0-7.008-1.485l-.562.136Z" fill="#1A33B2"/><path d="M103.177 69.157c-.708.42-1.132 1.194-1.375 1.98a18.784 18.784 0 0 0-.806 4.485l-.257 4.558-3.18 12.083c2.756 2.332 4.346 1.802 8.056-.106 3.709-1.907 4.133.636 4.133.636l.742-10.28 1.06-11.235a4.971 4.971 0 0 0-.803-.772 8.194 8.194 0 0 0-7.008-1.485l-.562.136Z" fill="#000" fill-opacity=".2"/><path d="M102.144 83.267c.085.032.168.07.248.116l7.323-3.665.122-1.986 3.021-.209.162 4.527-9.787 3.237a1.738 1.738 0 0 1-1.459 1.324 1.732 1.732 0 1 1 .37-3.344Z" fill="#FFB8B8"/><path d="M111.497 71.33c1.802.636 2.119 7.526 2.119 7.526-2.12-1.166-4.663.742-4.663.742s-.53-1.802-1.166-4.134a4.054 4.054 0 0 1 .848-3.816s1.06-.954 2.862-.318Z" fill="#1A33B2"/><path d="M111.497 71.33c1.802.636 2.119 7.526 2.119 7.526-2.12-1.166-4.663.742-4.663.742s-.53-1.802-1.166-4.134a4.054 4.054 0 0 1 .848-3.816s1.06-.954 2.862-.318Z" fill="#000" fill-opacity=".2"/><path d="M109.388 64.579c-.506-.405-1.195.33-1.195.33l-.404-3.638s-2.527.302-4.144-.101c-1.617-.404-1.87 1.465-1.87 1.465a12.99 12.99 0 0 1-.05-2.274c.101-.91 1.414-1.819 3.739-2.425 2.325-.607 3.537 2.021 3.537 2.021 1.618.809.892 5.026.387 4.622Z" fill="#2F2E41"/></g><defs><clipPath id="a"><path fill="#fff" d="M0 0h123v123.368H0z"/></clipPath></defs></svg>
